X:1
T:James Gibb editions
T:Exultate Deo - Scarlatti
T:#
%%score [ 1 2 3 4 ]
L:1/8
Q:1/4=100
M:4/4
K:C
V:1 treble nm="Soprano" snm="S"
V:2 treble nm="Alto" snm="A"
V:3 treble-8 nm="Tenor" snm="T"
V:4 bass nm="Bass" snm="B"
V:1
"^Exsultate Deo""^Alessandro Scarlatti\n(1660-1725)" G2 G2 (c4- | c2 B2 c2) (dc) | B4 G4 | z8 | %4
w: Ex- sul- ta\-|* * * te *|De- o,||
 z4 G2 G2 | (c6 B2 | c2 G2 c2 d2 |[M:4/4] e3 d e2 B2 | c2) G2 c2 e2 | (d2 c2 B2) (c2- | c2 B2) e4 | %11
w: ex- sul-|ta\- *|||* te, ex- sul-|ta\- * * te|* * De-|
 d4 c2 c2 | c4 B4 | (A2 G4 ^F2) | G4 z4 | G2 G2 (c4- | c2 B2 c3 B | A2 c2 B2 A2 | ^G2) B2 A2 G2 | %19
w: o a- diu-|to- ri|no\- * *|stro;|ex- sul- ta\-|||* te, ex- sul-|
 (A2 E2 A2 B2 | c3 B c2 B2 | c2 e2 d2 c2 | (B2 A2 ^G2) A2 | A2 ^G2 c4 | B4 c4) | d4 d2 d2 | e4 d4 | %27
w: ta\- * * *||* te, ex- sul-|ta\- * * te|De\- * *||o a- diu-|to- ri,|
 G2 G2 G4 | A4 G4 | G2 c4 B2 | B2 B2 (c4- | c4 B4 | A4 G4- | G2 ^F2 B4 | A8) | B8 |]S z2 d2 d2 d2 | %37
w: a- diu- to-|ri no-|stro, a- diu-|to- ri no\-|||||stro.|Al- le- lu-|
 (B3 A G4) | z2 c2 c2 c2 | (A3 B c4) | A2 A4 ^G2 | A2 e2 e2 e2 | A6 A2 | A2 A2 (^F2 ED | G6) c2 | %45
w: ia, * *|al- le- lu-|ia, * *|al- le- lu-|ia, al- le- lu-|ia, al-|le- lu- ia, * *|* al-|
 c6 d2 | B2 c4 B2 | (c2 BA B2 A2- | A2 G4 ^F2) | G2 d2 d2 d2 | (B3 c d4) | z2 d2 d2 d2 | %52
w: le- lu-|ia, al- le-|lu\- * * * *||ia, al- le- lu-|ia, * *|al- le- lu-|
 (edcB A2) c2 | c2 c2 (A3 B | c6 BA | G2) A2 G3 G | G4 z2 c2 | c2 d2 e2 A2 | G6 G2 | G2 (c4 B2) | %60
w: ia, * * * * al-|le- lu- ia, *||* al- le- lu-|ia, al-|le- lu- ia, al-|le- lu-|ia, al\- *|
 (c4 d3) d | e4 z4!fine! |][M:3/2][Q:1/4=150] z4 e2 e2 e2 e2 | %63
w: le\- * lu-|ia.|Ju- bi- la- te|
[M:3/2][Q:1/4=150][Q:1/4=150][Q:1/4=150][Q:1/4=150] e4 c4 e2 e2 | e4 (d2 c2) B4 | c4 e2 e2 d2 d2 | %66
w: De- o, ju- bi-|la- te * De-|o, ju- bi- la- te|
 e2 e2 (e4 d4) | e4 e2 e2 d2 d2 | c2 c2 A4 c4 | A2 A2 c2 d2 e2 e2 | c2 c2 c4 c4 | %71
w: De- o Ja\- *|cob, ju- bi- la- te|De- o Ja- cob,|ju- bi- la- te, ju- bi-|la- te De- o,|
 c2 c2 e2 e2 e2 e2 | (d2 B2 e8) | d4 d4 e4 | (d2 c2 B4 d4 | c4 B4 A2 B2 | G6 A2 D2 B2 | c4 A8) | %78
w: ju- bi- la- te De- o|Ja\- * *|cob, De- o|Ja\- * * *||||
 B4 B4 ^c4 | d12 | d4 d4 B4 | A12 |"^al fine" B12 |] %83
w: cob, De- o|Ja-|cob, De- o|Ja-|cob.|
V:2
 z4 C2 C2 | (G3 F E2) F2 | (G2 D2 E4- | E2 D2 G2 FE | D4) C4 | C2 C2 G4 | G4 G2 G2 |[M:4/4] (G8- | %8
w: Ex- sul-|ta\- * * te|De\- * *||* o,|ex- sul- ta-|te, ex- sul-|ta\-|
 G4 F2 E2 | F2 G2 F2) G2 | G8 | G4 E2 E2 | D6 G2 | E4 D4 | D2 D2 (G3 F | E2) D2 G4- | G4 G4 | F8 | %18
w: |* * * te|De-|o a- diu-|to- ri|no- stro;|ex- sul- ta\- *|* te, ex\-|* sul-|ta-|
 E8- | E4 E2 ^G2 | (A3 ^G A3 G | A2 E2 A2) G2 | F2 E2 D2 E2 | E8 | E4 E2 E2 | A2 A2 G4 | G4 F2 F2 | %27
w: te,|* ex- sul-|ta\- * * *|* * * te,|ex- sul- ta- te|De-|o, ex- sul-|ta- te De-|o a- diu-|
 F6 E2 | (F3 E D4) | E2 G4 G2 | G4 E4 | A2 A2 G4 | E8 | D8- | D8 | D8 |] z8 | z2 D2 D2 D2 | %38
w: to- ri|no\- * *|stro, a- diu-|to- ri,|a- diu- to-|ri|no\-||stro.||Al- le- lu-|
 (E3 F G4) | z2 F2 F2 F2 | E2 F2 E3 E | E4 E4 | E4 D4 | ^F6 B,2 | D4 C4 | E4 =F4 | (G2 FE D4 | %47
w: ia, * *|al- le- lu-|ia, al- le- lu-|ia, al-|le- lu-|ia, al-|le- lu-|ia, al-|le\- * * *|
 E2 DC B,2 E2) | D4 D2 D2 | D2 D2 (B,3 C | D2) D2 D2 D2 | (B,3 C D4) | G2 G2 F4 | F6 F2 | %54
w: |lu- ia, al-|le- lu- ia, *|* al- le- lu-|ia, * *|al- le- lu-|ia, al-|
 F2 F2 F4 | E2 F2 D4 | E2 G2 G2 G2 | (G6 FE | D2) E2 D3 D | E2 G2 A2 G2 | G2 (FE) A2 G2 | G4 z4 |] %62
w: le- lu- ia,|al- le- lu-|ia, al- le- lu-|ia, * *|* al- le- lu-|ia, al- le- lu-|ia, al\- * le- lu-|ia.|
[M:3/2] E2 E2 A4 ^G4 |[M:3/2] A2 A2 A2 E2 A2 A2 | (A6 G2 F4) | G12 | G12 | G4 G4 G4 | E4 F4 G2 G2 | %69
w: Ju- bi- la- te|De- o, ju- bi- la- te|De\- * *|o|Ja-|cob, De- o|Ja- cob, ju- bi-|
 F2 F2 F2 F2 G2 G2 | A2 A2 A8 | G4 G2 G2 G2 G2 | G4 G4 G4 | G4 G4 G4 | (G6 D2 G2 ^F2 | %75
w: la- te, ju- bi- la- te|De- o Ja-|cob, ju- bi- la- te|De- o Ja-|cob, De- o|Ja\- * * *|
 G6 ^F2 E2 G2 | E2 ^F2 G2 D2 G2 F2 | G8 ^F4) | G4 D4 G4 | (^F2 E2 D2 F2 G2 D2 | ^F2 G2 A4) D4 | %81
w: |||cob, De- o|Ja\- * * * * *|* * * cob,|
 D12 | D12 |] %83
w: Ja-|cob.|
V:3
 z8 | z8 | G2 G2 (c4- | c2 B2 c2) (dc) | B4 c4 | z4 d2 d2 | (e3 d e2 B2 | %7
w: ||Ex- sul- ta\-|* * * te *|De- o,|ex- sul-|ta\- * * *|
[M:4/4][K:treble-8] c3 B c2 d2 | e3 d c2 B2 | A2 G2 d2) e2 | (d6 c2 | B4) A4- | A2 d4 d2 | %13
w: ||* * * te|De\- *|* o|* a- diu-|
 c2 c2 A4 | B4 G2 G2 | (e2 d2 e4 | d4 e3 d | c3 A d2 c2 | B2) ^G2 A2 B2 | (c3 B c2) e2 | e4 e4 | %21
w: to- ri no-|stro, ex- sul-|ta\- * *|||* te, ex- sul-|ta\- * * te,|ex- sul-|
 (edcB A2) c2 | d2 A2 d2 c2 | (B6 A2) | ^G4 A2 c2 | (c2 BA B4) | c4 A2 A2 | d4 c4 | (c6 B2 | %29
w: ta\- * * * * te,|ex- sul- ta- te|De\- *|o a- diu-|to\- * * *|ri, a- diu-|to- ri|no\- *|
 c2 e2 c4) | e2 e4 e2 | d6 d2 | (c6 B2 | A4 G4- | G4 ^F4) | G8 |] z4 z2 d2 | d2 d2 (B3 A | %38
w: |stro, a- diu-|to- ri|no\- *|||stro.|Al-|le- lu- ia, *|
 G4) z2 c2 | c2 c2 (A3 B | c2) d2 B3 B | ^c6 c2 | ^c2 c2 A4- | A2 d2 d2 d2 | (B3 A G4) | %45
w: * al-|le- lu- ia, *|* al- le- lu-|ia, al-|le- lu- ia,|* al- le- lu-|ia, * *|
 z2 e2 e2 d2 | e4 A2 (BA | G2 d4 cB | A2 B2) A4 | B4 z2 d2 | d2 d2 (B3 c | dcBA B4) | z2 c2 c2 c2 | %53
w: al- le- lu-|ia, al- le\- *||* * lu-|ia, al-|le- lu- ia, *||al- le- lu-|
 (A3 B c4- | c2) (A2 c2 d2 | e2 c4) B2 | c2 e2 e2 e2 | e2 d2 (c2 dc | B2 c4) B2 | c2 e2 d3 d | %60
w: ia, * *|* al\- * *|* * le-|lu- ia,~~al- le- lu-|ia, al- le\- * *|* * lu-|ia, al- le- lu-|
 e2 c2 c2 B2 | c4 z4 |][M:3/2] c2 c2 c4 B4 |[M:3/2][K:treble-8] c2 c2 e2 e2 c2 c2 | %64
w: ia, al- le- lu-|ia.|Ju- bi- la- te|De- o, ju- bi- la- te|
 (c2 B2 A2 c2 d4) | e4 c4 G4 | z4 c2 c2 B2 B2 | c4 E4 G4 | A4 c2 c2 c2 c2 | c2 c2 A4 c4 | %70
w: De\- * * * *|o De- o,|ju- bi- la- te|De- o Ja-|cob, ju- bi- la- te|De- o Ja- cob|
 z4 A2 A2 c2 c2 | e2 e2 (c8 | B2 d2 c2 G2 c4) | B4 B4 c4 | (B6 A2 G2 A2 | G2 A2 B4 c2 d2 | %76
w: ju- bi- la- te|De- o Ja\-||cob, De- o|Ja\- * * *||
 e6 dc B2 d2 | G2 e2 d8) | d4 z4 z4 | z4 d4 B4 | (A2 G2 ^F4 G4- | G4 ^F2 E2 F4) | G12 |] %83
w: ||cob,|De- o|Ja\- * * *||cob.|
V:4
 z8 | z8 | z4 C,2 C,2 | (G,3 F, E,2) F,2 | (G,2 D,2 E,4) | A,4 G,2 G,2 | (C3 B, C2 G,2 | %7
w: ||Ex- sul-|ta\- * * te|De\- * *|o, ex- sul-|ta\- * * *|
[M:4/4] C,2 G,2 C,2 G,2 | C3 B, A,2 G,2 | F,2 E,2 D,2) C,2 | G,4 C,4 | G,2 G,2 (A,3 G, | %12
w: ||* * * te|De- o|a- diu- to\- *|
 ^F,4) G,4 | (C,4 D,4) | G,,4 z4 | z4 C,2 C,2 | (G,3 F, E,2 C,2 | F,3 E, D,2 B,,2 | %18
w: * ri|no\- *|stro,|ex- sul-|ta\- * * *||
 E,3 D, C,2 E,2 | A,3 ^G, A,2) E,2 | A,2 E,2 (A,,2 E,2 | A,3 G, F,2) E,2 | D,2 C,2 B,,2 A,,2 | %23
w: |* * * te,|ex- sul- ta\- *|* * * te,|ex- sul- ta- te|
 E,4 A,,4 | E,2 E,2 A,3 G, | ^F,4 G,4 | C,2 C,2 (D,3 C, | B,,4) C,4 | F,4 G,4 | (C,4 G,4- | %30
w: De- o,|ex- sul- ta- te|De- o|a- diu- to\- *|* ri|no- stro,|a\- *|
 G,2) G,2 (A,3 G, | ^F,4) G,4 | (C,8 | D,8- | D,8) | G,,8 |] G,8 | G,4 G,4 | C,8 | F,4 (F,3 G, | %40
w: * diu- to\- *|* ri|no\-|||stro.|Al-|le- lu-|ia,|al- le\- *|
 A,2 D,2 E,2) E,2 | A,,4 A,4 | A,4 (^F,3 E,) | D,6 G,2 | G,4 (E,3 D,) | C,2 C2 A,2 B,2 | %46
w: * * * lu-|ia, al-|le- lu\- *|ia, al-|le- lu\- *|ia, al- le- lu-|
 G,2 A,2 ^F,2 G,2 | E,2 ^F,2 G,2 C,2 | D,2 G,,2 D,3 D, | G,,4 G,4 | G,4 G,4 | G,6 F,2 | E,4 F,4 | %53
w: ia, al- le- lu-|ia, al- le- lu-|ia, al- le- lu-|ia, al-|le- lu-|ia, al-|le- lu-|
 F,4 F,4 | A,6 B,2 | C2 F,2 G,3 G, | C,2 C2 C2 C2 | C2 B,2 C2 F,2 | G,2 C,2 G,3 G, | %59
w: ia, al-|le- lu-|ia, al- le- lu-|ia, al- le- lu-|ia, al- le- lu-|ia, al- le- lu-|
 C,2 (C2 F,2) G,2 | (CB,A,G, F,2 G,2) | C,4 z4 |][M:3/2] A,2 A,2 A,4 E,4 | %63
w: ia, al\- * le-|lu\- * * * * *|ia.|Ju- bi- la- te|
[M:3/2] A,2 A,2 A,2 A,,2 A,2 A,2 | (A,2 G,2 F,2 E,2 D,4) | C,4 C2 C2 B,2 B,2 | C4 E,4 G,4 | %67
w: De- o, ju- bi- la- te|De\- * * * *|o, ju- bi- la- te|De- o Ja-|
 C,4 C2 C2 B,2 B,2 | C4 F,4 E,2 E,2 | F,2 F,2 F,2 F,2 E,2 C,2 | F,2 F,2 F,2 F,2 F,2 A,2 | %71
w: cob, ju- bi- la- te|De- o ju- bi-|la- te, ju- bi- la- te|De- o, ju- bi- la- te|
 C2 C,2 C,2 C,2 E,2 C,2 | G,4 E,4 C,4 | G,4 G,4 C,4 | (G,2 A,2 G,2 ^F,2 E,2 D,2 | %75
w: De- o, ju- bi- la- te|De- o Ja-|cob, De- o|Ja\- * * * * *|
 E,6 D,2 C,2 B,,2 | C,2 D,2 E,2 ^F,2 G,2 D,2 | E,2 C,2 D,8) | G,4 G,4 E,4 | %79
w: |||cob, De- o|
 (D,2 C,2 B,,2 A,,2 G,,2 B,,2 | D,12- | D,12) | G,,12 |] %83
w: Ja\- * * * * *|||cob.|

